icon-themes/sifr_svg/cmd/sc_saveacopy.svg

<svg viewBox="0 0 16 16" xmlns="http://www.w3.org/2000/svg"><path d="m2 2c-.554 0-1 .446-1 1v7c0 .554.446 1 1 1h2v-6c0-.554.446-1 1-1h6v-1c0-.554-.446-1-1-1zm3.5 3c-.277 0-.5.223-.5.5v8c0 .277.2.5.5.5h1.5v-4h6v4h1.5c.277 0 .5-.223.5-.5v-8c0-.277-.223-.5-.5-.5zm2.5 6v3h1v-2h1v2h2v-3z" fill="#555753"/></svg>

<svg xmlns="http://www.w3.org/2000/svg" viewBox="0 0 16 16">
  <path
     style="fill:#555753"
     d="M 2 2 C 1.446 2 1 2.446 1 3 L 1 10 C 1 10.554 1.446 11 2 11 L 4 11 L 4 5 C 4 4.446 4.446 4 5 4 L 11 4 L 11 3 C 11 2.446 10.554 2 10 2 L 2 2 z M 5.5 5 C 5.223 5 5 5.223 5 5.5 L 5 13.5 C 5 13.777 5.2 14 5.5 14 L 7 14 L 7 10 L 13 10 L 13 14 L 14.5 14 C 14.777 14 15 13.777 15 13.5 L 15 5.5 C 15 5.223 14.777 5 14.5 5 L 5.5 5 z M 8 11 L 8 14 L 9 14 L 9 12 L 10 12 L 10 14 L 12 14 L 12 11 L 8 11 z "
     />
</svg>
